config/expand/iconfont/module-menu/module-shezhizhongxin_active.svg

<?xml version="1.0" encoding="UTF-8"?>
<svg width="20px" height="18px" viewBox="0 0 20 18" version="1.1" xmlns="http://www.w3.org/2000/svg" xmlns:xlink="http://www.w3.org/1999/xlink">
    <!-- Generator: Sketch 53 (72520) - https://sketchapp.com -->
    <title>shezhizhongxinActive</title>
    <desc>Created with Sketch.</desc>
    <g id="Page-2" stroke="none" stroke-width="1" fill="none" fill-rule="evenodd">
        <g id="图标" transform="translate(-1094.000000, -543.000000)" fill="#FFFFFF">
            <g id="shezhizhongxinActive" transform="translate(1094.000000, 542.480000)">
                <g id="shezhi-4-copy" transform="translate(0.000000, 0.520000)" fill-rule="nonzero">
                    <path d="M0.337661566,7.73358355 L4.07122156,1.26641694 C4.52397852,0.482252977 5.3609259,-0.000580017134 6.26644,5.22925222e-07 L13.73356,5.22925222e-07 C14.6390741,-0.000580017134 15.4760215,0.482252977 15.9287784,1.26641694 L19.6606498,7.73358355 C20.1131167,8.51724477 20.1131167,9.48275521 19.6606498,10.2664164 L15.9287784,16.733583 C15.4760215,17.517747 14.6390741,18.00058 13.73356,17.9999995 L6.26475137,17.9999995 C5.3598405,17.9999765 4.52367699,17.5172243 4.07122156,16.733583 L0.339350199,10.2664164 C-0.113116733,9.48275521 -0.113116733,8.51724477 0.339350199,7.73358355 L0.337661566,7.73358355 Z M2.1431939,9.42213879 L5.53357476,15.7613732 C5.68439324,16.022587 5.96311441,16.1835044 6.26475137,16.183512 L13.73356,16.183512 C14.035197,16.1835044 14.3139181,16.022587 14.4647366,15.7613732 L17.9286651,9.42213879 C18.0794874,9.16091839 18.0794874,8.83908159 17.9286651,8.57786118 L14.4664252,2.39619271 C14.3153055,2.1344558 14.0358001,1.97345747 13.73356,1.97405391 L6.26475137,1.97405391 C5.96311441,1.97406157 5.68439324,2.13497895 5.53357476,2.39619271 L2.14488253,8.57786118 C1.99237159,8.83908159 1.99237159,9.16091839 2.1431939,9.42213879 Z" id="Shape-Copy-6"></path>
                </g>
                <path d="M10,12.04 C11.4318494,12.04 12.5925926,10.9117576 12.5925926,9.52 C12.5925926,8.12824243 11.4318494,7 10,7 C8.56815065,7 7.40740741,8.12824243 7.40740741,9.52 C7.40740741,10.9117576 8.56815065,12.04 10,12.04 Z" id="Path-Copy-11"></path>
            </g>
        </g>
    </g>
</svg>

<svg width="20" height="18" xmlns="http://www.w3.org/2000/svg"><path d="M.338 7.734L4.07 1.266A2.533 2.533 0 016.266 0h7.468c.905 0 1.742.482 2.195 1.266l3.732 6.468a2.533 2.533 0 010 2.532l-3.732 6.468A2.533 2.533 0 0113.734 18h-7.47a2.533 2.533 0 01-2.193-1.266L.34 10.266a2.533 2.533 0 010-2.532H.338zm1.805 1.688l3.39 6.34c.151.26.43.422.732.422h7.469c.301 0 .58-.161.73-.423l3.465-6.339a.844.844 0 000-.844l-3.463-6.182a.844.844 0 00-.732-.422h-7.47c-.3 0-.58.161-.73.422l-3.39 6.182a.84.84 0 000 .844z"/><path d="M10 11.52c1.432 0 2.593-1.128 2.593-2.52 0-1.392-1.161-2.52-2.593-2.52S7.407 7.608 7.407 9c0 1.392 1.161 2.52 2.593 2.52z"/></svg>
